X:705
T: Planxty Mary McClare
S: "Treoir" 34/2
C: Mick Furey
L: 1/8
M: 6/8
R: jig
K: D
d/e/ | f>gf e>fe | d>ed c>BA | Bcd A>GF | GAB Ade |
f>gf e>fe | d>ed c>BA | Bcd e>dc | d3 d2 :|
A | d>ef g>fg | agf e2d | d>ef g>fg| aba gfe |
agf gfe | fed B2A | d>ef gfe | d3 d2 :|
